X: 1146
T: Funny Mistake., The
B:O'Neill's Music of Ireland
N:O'Neill's - 1146
Z:Transcribed by Stephen Foy (shf@access.digex.net)
Z:abc 1.6
M:9/8
R:slipjig
K:C
G|c2 e ege f2 d|e2 c fdc B2 G|c2 e ege f2 d|e2 c fdB c2:|
|:(B/c/)|ded dBG BAG|ded dBG ABc|ded dBG BAG|ege fdB c2:|


